X: 6602
T: Caught In The Surf
R: reel
M: 4/4
K: Dmajor
|:DEFA d2dA|BdAd BdAF|DEFA d2dA|Beef edBA|
DEFA d2dA|BdAd B2ag|f2ed BAFB|AFEG FDD2:|
|:faab afde|fded BdA2|faaa bfaf|edfd Bee2|
faaa bfaf|edfd B2ag|f2ed BAFB|AFEG FDD2:|

